X: 12736
T: Father Kelly's
R: jig
M: 6/8
K: Gmajor
|:D|G3 BAG|F3 AFD|G3 BAG|B/c/dB cBA|
G2A BAG|F3 AFD|d^cd gf/e/d|cAF G2:|
A|B2d gdB|dgB dgB|c2e gec|egc ege|
d2f afd|fad faf|gfg efg|afd cBA|
B2d gdB|dgB dgB|c2e gec|egc ege|
d2f afd|fad faf|d^cd gf/e/d|cAF G2||
|:A|B3 BAG|F3 AFD|B3 BAG|B/c/dB cBA|
B3 BAG|F3 AFD|d^cd gf/e/d|cAF G2:|

